Origami/24x24/apps/openspades.svg

<svg width="24" height="24" version="1" xmlns="http://www.w3.org/2000/svg">
 <path d="m2 9v12c0 0.554 0.446 1 1 1h18c0.554 0 1-0.446 1-1v-12h-20z" style="fill:#ffffbf"/>
 <path d="m22 9v-6c0-0.554-0.446-1-1-1h-18c-0.554 0-1 0.446-1 1v6z" style="fill:#6765f6"/>
 <path d="m3 2c-0.554 0-1 0.446-1 1v0.5c0-0.554 0.446-1 1-1h18c0.554 0 1 0.446 1 1v-0.5c0-0.554-0.446-1-1-1h-18z" style="fill:#ffffff;opacity:.1"/>
 <path d="m3 22.5c-0.554 0-1-0.446-1-1v-0.5c0 0.554 0.446 1 1 1h18c0.554 0 1-0.446 1-1v0.5c0 0.554-0.446 1-1 1h-18z" style="opacity:.2"/>
 <rect x="6" y="9.5" width="4" height="4" style="opacity:.1"/>
 <rect x="6" y="9" width="4" height="4" style="fill:#3f3f3f"/>
 <rect x="14" y="9.5" width="4" height="4" style="opacity:.1"/>
 <rect x="14" y="9" width="4" height="4" style="fill:#3f3f3f"/>
</svg>

<svg xmlns="http://www.w3.org/2000/svg" width="24" height="24" version="1">
 <path style="fill:#ffffbf" d="m 2,9 0,12 c 0,0.554 0.446,1 1,1 l 18,0 c 0.554,0 1,-0.446 1,-1 L 22,9 2,9 Z"/>
 <path style="fill:#6765f6" d="M 22,9 22,3 C 22,2.446 21.554,2 21,2 L 3,2 C 2.446,2 2,2.446 2,3 l 0,6 z"/>
 <path style="opacity:0.1;fill:#ffffff" d="M 3,2 C 2.446,2 2,2.446 2,3 l 0,0.5 c 0,-0.554 0.446,-1 1,-1 l 18,0 c 0.554,0 1,0.446 1,1 L 22,3 C 22,2.446 21.554,2 21,2 L 3,2 Z"/>
 <path style="opacity:0.2" d="m 3,22.5 c -0.554,0 -1,-0.446 -1,-1 L 2,21 c 0,0.554 0.446,1 1,1 l 18,0 c 0.554,0 1,-0.446 1,-1 l 0,0.5 c 0,0.554 -0.446,1 -1,1 l -18,0 z"/>
 <rect style="opacity:0.1" width="4" height="4" x="6" y="9.5"/>
 <rect style="fill:#3f3f3f" width="4" height="4" x="6" y="9"/>
 <rect style="opacity:0.1" width="4" height="4" x="14" y="9.5"/>
 <rect style="fill:#3f3f3f" width="4" height="4" x="14" y="9"/>
</svg>
